X:1
T:Title
%%score { ( 1 3 ) | ( 2 4 ) }
L:1/8
Q:1/4=240
M:4/2
K:G
V:1 treble nm="Grand Piano"
V:3 treble 
V:2 bass 
V:4 bass 
V:1
 [B,D]8 [DGB]4 [G,DG]4 | [A,CG]6 [A,CF]2 [A,CF]4 [A,DF]4 | [G,DG]8 [Dc]8 | [DB]16 | B8 c4 B4 | %5
w: John~E.~Gaul * *|||||
 [FA]4 G4 G4 F4 | z8 [^CF]8 | D16 | D8 [DA]4 [G,DG]4 | [A,^DG]12 [A,=DF]4 | %10
w: |||||
 [G,DG]4 [G,DG]4 [B,DA]4 [B,DG]4 | [Ee]12 [Ee]4 | [=Fd]8 [FB]8 | [Ed]4 [Ec]4 [EB]4 [EA]4 | %14
w: ||||
 [EG]8 z8 | [^DB]16 | B8 c4 B4 | [^CB]8 [CA]8 | A4 A4 B4 A4 | G16 | G8 [D=FA]4 [DFG]4 | %21
w: |||||||
 [Ee]4 [=FB]4 [Ec]4 [^DA]4 | z8 F8 | [G,B,DG]16 |] %24
w: |||
V:2
 G,8 G,,4 B,,4 | A,,6 D,2 D,4 C,4 | B,,8 [A,,F,]8 | [A,,G,]16 | [G,D]8 [F,A,^D]4 [G,B,E]4 | %5
 [^D,C]4 [E,B,E]4 [E,B,E]4 [F,A,D]4 | [G,B,D]8 A,4 z4 | [D,F,]16 | [B,,G,]8 [B,,D,]4 B,,4 | %9
 C,12 C,4 | B,,4 B,,4 G,,4 G,,4 | [C,G,]12 [C,G,]4 | [C,^G,]8 [C,G,]8 | %13
 [C,A,]4 [C,A,]4 [C,B,]4 [C,C]4 | C4 z4 [C,F,]8 | [B,,F,]16 | [E,^G,D]8 [E,G,E]4 [E,G,D]4 | %17
 [A,,G,]8 [A,,G,]8 | [D,F,C]4 [D,F,C]4 [D,E,C]4 [D,F,C]4 | [E,G,B,]16 | [=F,G,B,]8 B,,4 B,,4 | %21
 [C,G,]4 [C,^G,]4 [C,A,]4 [C,C]4 | [D,B,D]8 A,4 z4 | G,,16 |] %24
V:3
 x16 | x16 | x16 | x16 | x16 | x16 | E8 z4 G,4 | x16 | x16 | x16 | x16 | x16 | x16 | x16 | %14
 z4 E,4 [EA]8 | x16 | x16 | x16 | x16 | x16 | x16 | x16 | d8 z4 B,2 C2 | x16 |] %24
V:4
 x16 | x16 | x16 | x16 | x16 | x16 | z8 A,,8 | x16 | x16 | x16 | x16 | x16 | x16 | x16 | C,8 z8 | %15
 x16 | x16 | x16 | x16 | x16 | x16 | x16 | z8 [D,D]8 | x16 |] %24

